X: 31873
T: Pay The Reckoning
R: jig
M: 6/8
K: Gmajor
|:G2e dBG|B3 dBA|G2e dBG|A3 BGE|
G2e dBG|B3 deg|age dBG|A3 BGE:|
|:g3 f3|ec/a/e def|g3 efg|a3 bge|
g3 fc/a/f|ec/a/e def|gfe dBG|A3 BGE:|

